X:1
T:Old Avram Brown
M:4/4
L:1/4
K:Bb
 z2 z D| D D D D| D D D D| F E D D| d3 d| c B A c| B A G B| A G F E|\
 D3 z|
